X: 1383
T: Dick Cribb
B: australian traditional tunes wiki
M:4/4
L:1/8
R: Set Tune
Q: 1/4=100
K:G
V:1 
D2|"G"B2BBB2B2|B2D2G2B2|"C"A2BAG2E2|"G"D6EF|G2GGG2G2|G2e2d2B2|"A7"A2AAA2B2|"D7"A4D4|
"G"B2BBB2B2|B2D2G2B2|"C"A2BAG2E2|"G"D4G3A|B2d2B2G2|"D7"F2e2d2B2|"G"G2Bc dcBA|G4G4||
"C"c2B2c2B2|c2c2g2e2|"G"e2d2d2Bc|d6EF|"G"G2G2G2G2|G2e2d2B2|"A7"A2FGA2B2|"D7"A4D4|
"G"B2BBB2B2|B2D2G2B2|"C"A2BAG2E2|"G"D4G3A|B2d2B2G2|"D7"F2e2d2B2|"G"G2Bc dcBA|"G"G6||
% abcbook-tune_id 6342d53a80b4d5fec274347e


% abcbook-boost 0
% abcbook-tablature 
% abcbook-transpose 
% abcbook-lastupdated 1665324362264
% abcbook-soundfonts 
% abcbook-repeats 1
% NFF Book 2009

